src/images/svg/symbols/index50-new.svg

<svg width="33" height="32" viewBox="0 0 33 32" fill="none" xmlns="http://www.w3.org/2000/svg">
<path d="M23.166 13.0001H24.666V22H23.166V32H22.166V22H20.666V13.0001H22.166V11.0001H23.166V13.0001Z" fill="#85ACB0"/>
<path d="M30.666 11V18H29.166V22H28.166V18H26.666V11H30.666Z" fill="#85ACB0"/>
<path d="M17.166 20V16H16.166V20H14.666V28H16.166V30H17.166V28H18.666V20H17.166Z" fill="#85ACB0"/>
<path d="M11.166 15H12.666V21H11.166V28H10.166V21H8.66602V15H10.166V13H11.166V15Z" fill="#85ACB0"/>
<path d="M5.16602 19H6.66602V23H5.16602V25H4.16602V23H2.66602V19H4.16602V17H5.16602V19Z" fill="#85ACB0"/>
<path d="M0.666016 2C0.666016 0.89543 1.56145 0 2.66602 0H12.666C13.7706 0 14.666 0.895431 14.666 2V8C14.666 9.10457 13.7706 10 12.666 10H2.66602C1.56145 10 0.666016 9.10457 0.666016 8V2Z" fill="#0E0E0E"/>
<path d="M7.04433 3.46431H4.50833L4.38833 5.23231H4.45233C4.50566 5.09898 4.56433 4.97898 4.62833 4.87231C4.69766 4.76031 4.77766 4.66698 4.86833 4.59231C4.95899 4.51231 5.06833 4.45098 5.19633 4.40831C5.32433 4.36565 5.47633 4.34431 5.65233 4.34431C5.89233 4.34431 6.11633 4.38431 6.32433 4.46431C6.53233 4.54431 6.71366 4.66165 6.86833 4.81631C7.02299 4.96565 7.14566 5.15231 7.23633 5.37631C7.32699 5.59498 7.37233 5.84298 7.37233 6.12031C7.37233 6.40298 7.32433 6.66698 7.22833 6.91231C7.13766 7.15231 6.99899 7.36031 6.81233 7.53631C6.631 7.71231 6.40699 7.85098 6.14033 7.95231C5.87366 8.04831 5.56966 8.09631 5.22833 8.09631C4.95633 8.09631 4.71633 8.06698 4.50833 8.00831C4.30033 7.94965 4.11633 7.87231 3.95633 7.77631C3.79633 7.67498 3.65766 7.56031 3.54033 7.43231C3.42299 7.30431 3.32166 7.16831 3.23633 7.02431L4.10833 6.33631C4.23099 6.55498 4.37766 6.74165 4.54833 6.89631C4.71899 7.04565 4.94833 7.12031 5.23633 7.12031C5.52433 7.12031 5.74033 7.03765 5.88433 6.87231C6.03366 6.70698 6.10833 6.48831 6.10833 6.21631V6.15231C6.10833 5.89631 6.03366 5.69365 5.88433 5.54431C5.73499 5.39498 5.52966 5.32031 5.26833 5.32031C5.04966 5.32031 4.86833 5.36565 4.72433 5.45631C4.58566 5.54165 4.47899 5.62698 4.40433 5.71231L3.42033 5.57631L3.62833 2.41631H7.04433V3.46431Z" fill="white"/>
<path d="M10.0652 8.09631C9.33454 8.09631 8.7932 7.84298 8.4412 7.33631C8.0892 6.82965 7.9132 6.12031 7.9132 5.20831C7.9132 4.29631 8.0892 3.58698 8.4412 3.08031C8.7932 2.57365 9.33454 2.32031 10.0652 2.32031C10.7959 2.32031 11.3372 2.57365 11.6892 3.08031C12.0412 3.58698 12.2172 4.29631 12.2172 5.20831C12.2172 6.12031 12.0412 6.82965 11.6892 7.33631C11.3372 7.84298 10.7959 8.09631 10.0652 8.09631ZM10.0652 7.08031C10.3852 7.08031 10.6065 6.96298 10.7292 6.72831C10.8519 6.49365 10.9132 6.16298 10.9132 5.73631V4.68031C10.9132 4.25365 10.8519 3.92298 10.7292 3.68831C10.6065 3.45365 10.3852 3.33631 10.0652 3.33631C9.7452 3.33631 9.52387 3.45365 9.4012 3.68831C9.27854 3.92298 9.2172 4.25365 9.2172 4.68031V5.73631C9.2172 6.16298 9.27854 6.49365 9.4012 6.72831C9.52387 6.96298 9.7452 7.08031 10.0652 7.08031Z" fill="white"/>
</svg>

<svg width="33" height="32" fill="none" xmlns="http://www.w3.org/2000/svg"><path d="M23.166 13h1.5v9h-1.5v10h-1V22h-1.5v-9h1.5v-2h1v2ZM30.666 11v7h-1.5v4h-1v-4h-1.5v-7h4ZM17.166 20v-4h-1v4h-1.5v8h1.5v2h1v-2h1.5v-8h-1.5ZM11.166 15h1.5v6h-1.5v7h-1v-7h-1.5v-6h1.5v-2h1v2ZM5.166 19h1.5v4h-1.5v2h-1v-2h-1.5v-4h1.5v-2h1v2Z" fill="#85ACB0"/><path d="M.666 2a2 2 0 0 1 2-2h10a2 2 0 0 1 2 2v6a2 2 0 0 1-2 2h-10a2 2 0 0 1-2-2V2Z" fill="#0E0E0E"/><path d="M7.044 3.464H4.508l-.12 1.768h.064c.054-.133.112-.253.176-.36.07-.112.15-.205.24-.28.091-.08.2-.141.328-.184.128-.042.28-.064.456-.064.24 0 .464.04.672.12a1.6 1.6 0 0 1 .912.912c.091.219.136.467.136.744 0 .283-.048.547-.144.792-.09.24-.229.448-.416.624a1.94 1.94 0 0 1-.672.416c-.266.096-.57.144-.912.144a2.66 2.66 0 0 1-.72-.088 2.26 2.26 0 0 1-.552-.232 2.042 2.042 0 0 1-.416-.344 2.456 2.456 0 0 1-.304-.408l.872-.688a2.2 2.2 0 0 0 .44.56c.171.15.4.224.688.224.288 0 .504-.082.648-.248.15-.165.224-.384.224-.656v-.064c0-.256-.074-.458-.224-.608-.149-.149-.354-.224-.616-.224-.218 0-.4.046-.544.136-.138.086-.245.171-.32.256l-.984-.136.208-3.16h3.416v1.048ZM10.065 8.096c-.73 0-1.272-.253-1.624-.76-.352-.506-.528-1.216-.528-2.128 0-.912.176-1.621.528-2.128.352-.506.894-.76 1.624-.76.73 0 1.272.254 1.624.76.352.507.528 1.216.528 2.128 0 .912-.176 1.622-.528 2.128-.352.507-.893.76-1.624.76Zm0-1.016c.32 0 .542-.117.664-.352.123-.234.184-.565.184-.992V4.68c0-.426-.061-.757-.184-.992-.122-.234-.344-.352-.664-.352-.32 0-.541.118-.664.352-.122.235-.184.566-.184.992v1.056c0 .427.062.758.184.992.123.235.344.352.664.352Z" fill="#fff"/></svg>
